X: 1
T: An Dro 6
M: C|
L: 1/8
B: Dave Shepherd "Breton Dance 7 Tune Book"
K: Am
|: "G"d2cB A3G | "Am"A2B2   c2B2 \
|  "G"d2cB A3G | "E7"A2B2 "Am"c4 :|
|: "Am"A2Bc "G"B2cd | "Am"e2e2     "G"dcB2 \
|  "Am"A2Bc "G"B2cd | "Am"c2"G"B2 "Am"A4 :|
